assets/icons/emote/raspberry.svg

<?xml version="1.0" encoding="UTF-8" standalone="no"?>
<svg
   viewBox="0 0 24 24"
   width="24"
   height="24"
   version="1.1"
   id="svg4"
   sodipodi:docname="raspberry.svg"
   inkscape:version="1.2 (1:1.2.1+202207142221+cd75a1ee6d)"
   xmlns:inkscape="http://www.inkscape.org/namespaces/inkscape"
   xmlns:sodipodi="http://sodipodi.sourceforge.net/DTD/sodipodi-0.dtd"
   xmlns="http://www.w3.org/2000/svg"
   xmlns:svg="http://www.w3.org/2000/svg"
   xmlns:rdf="http://www.w3.org/1999/02/22-rdf-syntax-ns#"
   xmlns:cc="http://creativecommons.org/ns#"
   xmlns:dc="http://purl.org/dc/elements/1.1/">
  <metadata
     id="metadata10">
    <rdf:RDF>
      <cc:Work
         rdf:about="">
        <dc:format>image/svg+xml</dc:format>
        <dc:type
           rdf:resource="http://purl.org/dc/dcmitype/StillImage" />
      </cc:Work>
    </rdf:RDF>
  </metadata>
  <defs
     id="defs8" />
  <sodipodi:namedview
     pagecolor="#ffffff"
     bordercolor="#666666"
     borderopacity="1"
     objecttolerance="10"
     gridtolerance="10"
     guidetolerance="10"
     inkscape:pageopacity="0"
     inkscape:pageshadow="2"
     inkscape:window-width="1920"
     inkscape:window-height="1016"
     id="namedview6"
     showgrid="true"
     inkscape:zoom="22.627417"
     inkscape:cx="12.59534"
     inkscape:cy="2.541165"
     inkscape:window-x="0"
     inkscape:window-y="0"
     inkscape:window-maximized="1"
     inkscape:current-layer="svg4"
     inkscape:pagecheckerboard="0"
     width="24px"
     inkscape:showpageshadow="2"
     inkscape:deskcolor="#d1d1d1">
    <inkscape:grid
       type="xygrid"
       id="grid1436" />
  </sodipodi:namedview>
  <path
     id="path987"
     style="display:inline;fill:#808080;fill-opacity:1;stroke:none;stroke-width:1"
     d="M 6.375 12.625 L 6.375 13.40625 C 6.375 13.51405 6.4179782 13.713346 6.4863281 13.943359 C 7.5441352 14.647583 9.4602917 15.028918 11.449219 15.085938 L 12.625 17.123047 C 12.97125 17.722768 13.853863 17.858593 14.603516 17.425781 C 15.353169 16.992969 15.678281 16.160269 15.332031 15.560547 L 14.917969 14.841797 C 15.897749 14.663072 16.761307 14.389723 17.382812 14.019531 C 17.510652 13.681847 17.581085 13.404301 17.589844 13.289062 L 17.625 12.625 C 15.332452 14.25431 8.6179889 14.25431 6.375 12.625 z " />
  <path
     style="display:inline;fill:#808080;fill-opacity:1;stroke:none;stroke-width:1"
     d="m 15.125025,7.625015 c 0.697913,0 1.25,0.59115 1.25,1.2890624 v 1.2109376 c 0,0.697912 -0.552087,1.25 -1.25,1.25 -0.697913,0 -1.25,-0.552088 -1.25,-1.25 v -1.2109376 c 0,-0.6979124 0.552087,-1.2890624 1.25,-1.2890624 z"
     id="path985" />
  <path
     style="display:inline;fill:#808080;fill-opacity:1;stroke:none;stroke-width:1"
     d="m 8.835937,7.6054838 c 0.6979124,0 1.289062,0.5911499 1.289062,1.2890624 v 1.2109378 c 0,0.697912 -0.5911496,1.249999 -1.289062,1.249999 -0.6979124,0 -1.2499999,-0.552087 -1.2499999,-1.249999 v -1.2109378 c 0,-0.6979125 0.5520875,-1.2890624 1.2499999,-1.2890624 z"
     id="path983" />
  <path
     id="path993"
     style="fill:#808080;fill-opacity:1;fill-rule:evenodd;stroke:none;stroke-width:0.75;stroke-linecap:square;stroke-linejoin:round;stroke-opacity:1"
     d="m 11.953614,2.6250154 a 9.3749993,9.3749993 0 0 0 -9.328614,9.3749986 9.3749993,9.3749993 0 0 0 9.375,9.374999 9.3749993,9.3749993 0 0 0 9.375,-9.374999 9.3749993,9.3749993 0 0 0 -9.375,-9.3749986 9.3749993,9.3749993 0 0 0 -0.04639,0 z m 0.04639,1.2499999 a 8.1249994,8.1249994 0 0 1 8.124999,8.1249987 8.1249994,8.1249994 0 0 1 -8.124999,8.124999 8.1249994,8.1249994 0 0 1 -8.1250004,-8.124999 8.1249994,8.1249994 0 0 1 8.1250004,-8.1249987 z" />
</svg>

<svg width="24" height="24" xmlns="http://www.w3.org/2000/svg"><path style="display:inline;fill:gray;fill-opacity:1;stroke:none;stroke-width:1" d="M6.375 12.625v.781c0 .108.043.307.111.537 1.058.705 2.974 1.086 4.963 1.143l1.176 2.037c.346.6 1.229.736 1.979.303s1.074-1.266.728-1.865l-.414-.72c.98-.178 1.843-.451 2.465-.821.128-.338.198-.616.207-.73l.035-.665c-2.293 1.63-9.007 1.63-11.25 0zm8.75-5c.698 0 1.25.591 1.25 1.29v1.21a1.24 1.24 0 0 1-1.25 1.25 1.24 1.24 0 0 1-1.25-1.25v-1.21c0-.699.552-1.29 1.25-1.29zm-6.289-.02c.698 0 1.289.592 1.289 1.29v1.21c0 .698-.591 1.25-1.29 1.25a1.24 1.24 0 0 1-1.25-1.25v-1.21c0-.698.553-1.29 1.25-1.29z"/><path style="fill:gray;fill-opacity:1;stroke:none;stroke-width:.75;stroke-linecap:square;stroke-linejoin:round;stroke-opacity:1" d="M11.954 2.625A9.375 9.375 0 0 0 2.625 12 9.375 9.375 0 0 0 12 21.375 9.375 9.375 0 0 0 21.375 12 9.375 9.375 0 0 0 12 2.625a9.375 9.375 0 0 0-.046 0zM12 3.875A8.125 8.125 0 0 1 20.125 12 8.125 8.125 0 0 1 12 20.125 8.125 8.125 0 0 1 3.875 12 8.125 8.125 0 0 1 12 3.875z"/></svg>
